agir/front/components/genericComponents/images/mail-checked.svg

<svg width="62" height="59" viewBox="0 0 62 59" fill="none" xmlns="http://www.w3.org/2000/svg">
<path d="M8.33341 8.3335H41.6667C43.9584 8.3335 45.8334 10.2085 45.8334 12.5002V37.5002C45.8334 39.7918 43.9584 41.6668 41.6667 41.6668H8.33341C6.04175 41.6668 4.16675 39.7918 4.16675 37.5002V12.5002C4.16675 10.2085 6.04175 8.3335 8.33341 8.3335Z" stroke="black" stroke-width="4.16667" stroke-linecap="round" stroke-linejoin="round"/>
<path d="M45.8334 12.5L25.0001 27.0833L4.16675 12.5" stroke="black" stroke-width="4.16667" stroke-linecap="round" stroke-linejoin="round"/>
<path fill-rule="evenodd" clip-rule="evenodd" d="M46.6666 57.6667C55.135 57.6667 61.9999 50.8017 61.9999 42.3333C61.9999 33.865 55.135 27 46.6666 27C38.1982 27 31.3333 33.865 31.3333 42.3333C31.3333 50.8017 38.1982 57.6667 46.6666 57.6667ZM53.3627 39.7179C53.7592 39.3334 53.769 38.7003 53.3845 38.3039C53 37.9074 52.3669 37.8976 51.9704 38.2821L44.4166 45.607L41.3627 42.6457C40.9662 42.2613 40.3332 42.271 39.9487 42.6675C39.5642 43.064 39.574 43.6971 39.9704 44.0815L43.7204 47.7179C44.1083 48.094 44.7248 48.094 45.1127 47.7179L53.3627 39.7179Z" fill="#571AFF"/>
</svg>

<svg width="62" height="59" fill="none" xmlns="http://www.w3.org/2000/svg"><path d="M8.333 8.334h33.334a4.179 4.179 0 0 1 4.166 4.166v25a4.179 4.179 0 0 1-4.166 4.167H8.333A4.179 4.179 0 0 1 4.167 37.5v-25a4.179 4.179 0 0 1 4.166-4.166Z" stroke="#000" stroke-width="4.167" stroke-linecap="round" stroke-linejoin="round"/><path d="M45.833 12.5 25 27.083 4.167 12.5" stroke="#000" stroke-width="4.167" stroke-linecap="round" stroke-linejoin="round"/><path fill-rule="evenodd" clip-rule="evenodd" d="M46.667 57.667C55.135 57.667 62 50.802 62 42.333 62 33.865 55.135 27 46.667 27c-8.469 0-15.334 6.865-15.334 15.333 0 8.469 6.865 15.334 15.334 15.334Zm6.696-17.95a1 1 0 1 0-1.393-1.435l-7.553 7.325-3.054-2.961a1 1 0 0 0-1.393 1.435l3.75 3.637a1 1 0 0 0 1.393 0l8.25-8Z" fill="#571AFF"/></svg>
